static/characters/chotto_toorimasu_yo/back-walking-2.svg

<svg height="182" width="160" xmlns="http://www.w3.org/2000/svg" xml:space="preserve" style="fill-rule:evenodd;clip-rule:evenodd;stroke-linejoin:round;stroke-miterlimit:1.5"><path d="M97.849 135.338H79.972c1.38 3.221-4.028 9.152-6.852 3.605-1.411-2.773-1.289-6.611-.93-11.022.224-2.757-2.48-6.201-6.214-9.196-2.585-2.073-3.941-4.996-4.552-6.514-1.316-3.273-2.208-8.497-1.331-12.623 2.008-9.455 5.228-19.763 10.377-28.659 13.515-18.324 28.071-12.717 39.095-1.644 2.993 3.006 4.773 6.944 7.347 10.279 2.778 3.6 1.042 17.302-2.235 21.177-3.785 4.477-9.06 10.919-8.029 16.524.364 1.984 1.569 4.045 1.889 5.991.924 5.624.269 10.664 0 12.082-.73 8.395-10.141 7.138-10.688 0Z" style="fill:#fff"/><path d="M66.35 79.808c.71-1.167 3.322-7.798 4.068-8.808 21.659-29.336 57.466 5.935 51.283 22.727-.178.483-1.864 7.129-6.681 11.605-6.321 5.873-6.263 14.575-4.536 15.286" style="fill:none;stroke:#000;stroke-width:2.61px" transform="matrix(.93378 -.01752 0 1 4.394 1.162)"/><path d="M54.321 126.668c.362 5.416-.312 10.082 1.076 12.158m0 0c2.914 4.355 8.198 1.864 8.233-1.698" style="fill:none;stroke:#000;stroke-width:2.42px" transform="matrix(-1.06826 0 0 1 166.566 -.192)"/><path d="m72.841 135.733 26.143-.07" style="fill:none;stroke:#000;stroke-width:3.05px" transform="matrix(-.58175 .00268 -.00268 .99998 139.618 -.263)"/><path d="M108.398 124.89c.043 4.275.29 10.197 0 12.238-.782 5.509-7.633 4.766-7.635-1.256" style="fill:none;stroke:#000;stroke-width:2.5px" transform="matrix(-1 0 0 1 180.655 0)"/><path d="M58.401 101.558c-1.93 4.879.444 12.405 6.654 17.393l2.719-.666c-5.246-4.529-7.835-9.309-7.277-15.886l-2.096-.841Zm6.424-21.002-5.841 17.58 2.282 1.214 5.716-17.766-2.157-1.028Z"/></svg>

<?xml version="1.0" encoding="UTF-8" standalone="no"?>
<!DOCTYPE svg PUBLIC "-//W3C//DTD SVG 1.1//EN" "http://www.w3.org/Graphics/SVG/1.1/DTD/svg11.dtd">
<svg height="182" width="160" viewBox="0 0 160 182" version="1.1" xmlns="http://www.w3.org/2000/svg" xmlns:xlink="http://www.w3.org/1999/xlink" xml:space="preserve" xmlns:serif="http://www.serif.com/" style="fill-rule:evenodd;clip-rule:evenodd;stroke-linejoin:round;stroke-miterlimit:1.5;">
    <g>
        <path d="M97.849,135.338L79.972,135.338C81.352,138.559 75.944,144.49 73.12,138.943C71.709,136.17 71.831,132.332 72.19,127.921C72.414,125.164 69.71,121.72 65.976,118.725C63.391,116.652 62.035,113.729 61.424,112.211C60.108,108.938 59.216,103.714 60.093,99.588C62.101,90.133 65.321,79.825 70.47,70.929C83.985,52.605 98.541,58.212 109.565,69.285C112.558,72.291 114.338,76.229 116.912,79.564C119.69,83.164 117.954,96.866 114.677,100.741C110.892,105.218 105.617,111.66 106.648,117.265C107.012,119.249 108.217,121.31 108.537,123.256C109.461,128.88 108.806,133.92 108.537,135.338C107.807,143.733 98.396,142.476 97.849,135.338Z" style="fill:white;"/>
        <g transform="matrix(0.933783,-0.0175172,0,1,4.39351,1.16227)">
            <path d="M66.35,79.808C67.06,78.641 69.672,72.01 70.418,71C92.077,41.664 127.884,76.935 121.701,93.727C121.523,94.21 119.837,100.856 115.02,105.332C108.699,111.205 108.757,119.907 110.484,120.618" style="fill:none;stroke:black;stroke-width:2.61px;"/>
        </g>
        <g transform="matrix(-1.06826,0,0,1,166.566,-0.192)">
            <path d="M54.321,126.668C54.683,132.084 54.009,136.75 55.397,138.826" style="fill:none;stroke:black;stroke-width:2.42px;"/>
        </g>
        <g transform="matrix(-1.06826,0,0,1,166.566,-0.192)">
            <path d="M55.397,138.826C58.311,143.181 63.595,140.69 63.63,137.128" style="fill:none;stroke:black;stroke-width:2.42px;"/>
        </g>
        <g transform="matrix(-0.581748,0.0026811,-0.0026811,0.999983,139.618,-0.263056)">
            <path d="M72.841,135.733L98.984,135.663" style="fill:none;stroke:black;stroke-width:3.05px;"/>
        </g>
        <g transform="matrix(-1,0,0,1,180.655,0)">
            <path d="M108.398,124.89C108.441,129.165 108.688,135.087 108.398,137.128C107.616,142.637 100.765,141.894 100.763,135.872" style="fill:none;stroke:black;stroke-width:2.5px;"/>
        </g>
        <g transform="matrix(-0.409266,-0.946057,1.12606,-0.0112691,-20.7243,138.328)">
            <path d="M37.866,84.03C32.751,80.457 24.805,79.677 19.49,83.26L20.162,85.919C24.984,83.013 30.042,82.552 36.958,85.561L37.866,84.03Z"/>
        </g>
        <g transform="matrix(0.302405,-0.953179,1.12606,-0.0112691,-40.5412,117.776)">
            <path d="M38.063,83.349L19.622,83.114L18.32,85.49L36.958,85.561L38.063,83.349Z"/>
        </g>
    </g>
</svg>
